!!!OTL@ENG: My Horse
!!!ONM: 62
**kern
*Imale
*clefF4
*k[b-e-]
*M3/4
*MM104
16G
8.G
16d
=1
[2c
8.c]
16B-
=2||
*M2/4
4B-
8B-
8B-
=3
8.G
16G
[4G
=4
4..G]
16c
=5
8.B-
16G
8.G
16c
=6
(16B-
8.G)
8.G
16G
=7
4G
8.D
16D
=8||
*M3/4
4D
8C
8C
4C
=9||
*M2/4
[2C
=10
8.C]
16E-
8.D
16E-
=11
[4D
8.D]
16C
=12||
*M2/4
4C
8C
8BB-
=13
8.GG
16GG
[4GG
=14
2GG]
==
*-
!!!CNT: Native American -- Sioux
!!!MRD: 1911/07//-1914///
!!!OCL: Frances Densmore
!!!YOR1: Teton Sioux Music, Bulletin 61,
!!!YOR2: Bureau of American Ethnology, Smithsonian Institution
!!!PPR: Government Printing Office
!!!PPP: Washington, D.C.
!!!PDT: 1918///
!!!ENC: Craig Stuart Sapp
!!!END: 2002/03/25/
!!!EED: Craig Stuart Sapp
!!!EEV: 2002/03/31/
!!!YEC: 2002 Craig Stuart Sapp
!!!YEM: Licence: (CC BY-NC-SA 4.0) https://creativecommons.org/licenses/by-nc-sa/4.0
!!!URL: https://raw.githubusercontent.com/craigsapp/densmore-teton-sioux/master/kern/sioux062.krn
!!!title: @{ONM}. <i>@{OTL}</i>
!!!AGN: Song of Personal Dreams/Song Concerning the Sacred Stones
!!!MPN@@SIO: Ishn'la-wicha'
!!!MPN@ENG: Lone Man
!!!TXO: Teton Sioux
!!!MLC: Standing Rock Reservation, South Dakota, United States of America
!!!ARL: 45.9/-100.7#
!!!catalog: Catalogue No. 490
!!!PPG: 216
!!!EFL: 62/245
